src/icons/svg/VisPie.svg

<svg width="24" height="24" viewBox="0 0 24 24" fill="none" xmlns="http://www.w3.org/2000/svg">
<path d="M21.191 12.574C21.191 7.18 16.819 2.808 11.425 2.808C11.228 2.808 11.044 2.848 10.851 2.862V2.808H9.70198V5.221C5.80898 5.784 2.80798 9.101 2.80798 13.149C2.80798 17.591 6.40898 21.192 10.851 21.192C13.053 21.192 15.025 20.278 16.476 18.842L18.198 20.043L18.905 19.078L18.77 18.985C20.271 17.27 21.191 15.034 21.191 12.575V12.574ZM10.851 20.043C7.04298 20.043 3.95698 16.956 3.95698 13.149C3.95698 9.734 6.44398 6.92 9.70198 6.371V14.098L9.69098 14.113L9.70198 14.121L15.524 18.179C14.293 19.322 12.664 20.043 10.851 20.043ZM17.825 18.325L10.851 13.464V4.015C11.044 4.001 11.229 3.958 11.425 3.958C16.185 3.958 20.042 7.815 20.042 12.575C20.042 14.789 19.199 16.8 17.825 18.325V18.325Z" fill="#1C2125"/>
<path d="M23.872 23.872H0.127014V0.126999H23.872V23.872ZM0.894014 23.106H23.107V0.892999H0.894014V23.106V23.106Z" fill="#1C2125"/>
</svg>

<!-- Generated by IcoMoon.io -->
<svg version="1.1" xmlns="http://www.w3.org/2000/svg" width="24" height="24" viewBox="0 0 24 24">
<title>vis-pie</title>
<path fill="#444" d="M21.191 12.574c0-5.394-4.372-9.766-9.766-9.766-0.197 0-0.381 0.040-0.574 0.054v-0.054h-1.149v2.413c-3.893 0.563-6.894 3.88-6.894 7.928 0 4.442 3.601 8.043 8.043 8.043 2.202 0 4.174-0.914 5.625-2.35l1.722 1.201 0.707-0.965-0.135-0.093c1.501-1.715 2.421-3.951 2.421-6.41v0zM10.851 20.043c-3.808 0-6.894-3.087-6.894-6.894 0-3.415 2.487-6.229 5.745-6.778v7.727l-0.011 0.015 0.011 0.008 5.822 4.058c-1.231 1.143-2.86 1.864-4.673 1.864v0zM17.825 18.325l-6.974-4.861v-9.449c0.193-0.014 0.378-0.057 0.574-0.057 4.76 0 8.617 3.857 8.617 8.617 0 2.214-0.843 4.225-2.217 5.75v0z"></path>
<path fill="#444" d="M23.872 23.872h-23.745v-23.745h23.745v23.745zM0.894 23.106h22.213v-22.213h-22.213v22.213z"></path>
</svg>
